X:1
T:Title
%%score { ( 1 3 ) | ( 2 4 ) }
L:1/8
M:4/4
K:Db
V:1 treble nm="Grand Piano"
V:3 treble 
V:2 bass 
V:4 bass 
V:1
 z4 z z/[Q:1/4=100] A/ F>A | d6 z2 | G6 z2 | c6 z2 | A6 z2 | f6 z2 | B6 z2 | e6 z2 | %8
[M:7/8] z z/ A/-A- A- A3 |[M:1/4] [DFA]2 |[M:4/4] [A,DF]>[GB] [FA]4 [Fd]2 | [DF]>[GB] [FA]4 [Fd]2 | %12
 [Ac]>[GB] [EG]4 [CGB]2 | [DFA]>[A,EG] [A,DF]4 [DFA]2 | [A,DF]>[GB] [FA]4 [Ad]2 | e>d B4 d2 | %16
 c3 c cA[GB][Gc] |[M:11/16] d/-d/-d/-d/-d/-d/-d/-d-<d |] %18
V:2
 z8 | z z/ [D,A,]/ [D,A,]>[D,A,] [D,A,]2 z2 | z z/ A,,/ A,,>A,, A,,2 z2 | %3
 z z/ [A,,A,]/ [A,,A,]>[A,,A,] [A,,A,]2 z2 | z z/ [D,A,]/ [D,A,]>[D,A,] [D,A,]2 z2 | %5
 z z/ [D,D]/ [D,D]>[D,D] [D,D]2 z2 | z z/ [G,D]/ [G,D]>[G,D] [G,D]2 z2 | %7
 z z/ [E,D]/ [E,D]>[E,D] [E,D]2 z2 |[M:7/8] z z/ A,,<A,,A,,/ A,,3 |[M:1/4] D,2 | %10
[M:4/4] D,>[D,D] [D,D]4 [D,A,]2 | [D,A,]>[D,D] [D,D]4 [D,A,]2 | [A,,A,]>[A,,A,] [A,,A,]4 A,,2 | %13
 D,>D, D,4 D,2 | D,>[D,D] [D,D]4 [F,D]2 | [G,B,G]>[G,B,G] [G,DG]4 [G,B,G]2 | %16
 [A,E]3 [A,E] [A,E][A,G][K:bass][A,,A,][A,,A,] |[M:11/16] A,-<A, z/ z/ z/ z/ z/ z |] %18
V:3
 x8 | z z/ F/ F>F F>A c>B | z z/ [CE]/ [CE]>[CE] [CE]>G E>G | z z/ G/ G>G G>B G>B | %4
 z z/ F/ F>F F>A F>A | z z/ A/ A>A A>d c>d | z z/ G/ G>G G>d c>d | z z/ =G/ G>G G>B c>B | %8
[M:7/8] A>C[CE]>[DF] [EG]3 |[M:1/4] x2 |[M:4/4] x8 | x8 | x8 | x8 | x8 | x8 | x8 | %17
[M:11/16] F-<FG-<GF3/2 |] %18
V:4
 x8 | x8 | x8 | x8 | x8 | x8 | x8 | x8 |[M:7/8] x7 |[M:1/4] x2 |[M:4/4] x8 | x8 | x8 | x8 | x8 | %15
 x8 | x6[K:bass] x2 |[M:11/16] D,-<D,-[D,B,]-<[D,-B,][D,A,]3/2 |] %18

